X:2006
T:Hambo
R:Hambo
O:Norrbotten
Z:Johan Dahlberg
B:August Nordström
M:3/4
L:1/16
K:G
|:G2>B2 B2>d2 d4 | d2>B2 g2>B2 d4 | d2>c2 e2>c2 A4 | A2>G2 B2>G2 D4 | G2>B2 B2>d2 d4 |
d2>B2 g2>B2 d4 | d2>c2 e2>c2 c2>A2 | A4 G4 A4 :| e2>d2 F4 F4 |
e2>d2 G4 G4 | A2>G2 F2>G2 A2>B2 | c2>d2 e2>d2 c2>d2 | e2>d2 F4 F4 |
e2>d2 G4 G4 | A2>G2 F2>A2 d2>f2 |: g4 G8 | B2c2 c2d2 d2d2 |
g4 B4 B4 | d2>c2 A2>D2 D4 | e2>d2 B2>G2 D4 | B2c2 c2d2 d2d2 |
g4 B4 A4 | d4 D4 B2>A2 | G4 G4 A4 :|
(:musicend:)
(:music:)
